!!!!SEGMENT: pl-sa--358-a-vii-118--002_anonim--pastorella-ktols-o-tej-dobie-pllacze-we-lzllobie.krn
!!!cenid: 17xx:1444
!!!COM: Anonim
!!!COM-rismid: pe30004985
!!!CDT:
!!!CNT:
!!!OPR: Pastorella
!!!OTL: Ktoś o tej dobie płacze we żłobie
!!!OMV: 002
!!!PDT: 1738
!!!AGN:
!!!SMS-siglum: PL-SA
!!!SMS-shelfmark: 358/A VII 118
!!!SMS-shelfwork: 001-002 M
!!!SMS-variant:
!!!SMS-altvar:
!!!NIFC-rismid: 1001038385
!!!URL-scan: http://bc.bdsandomierz.pl/dlibra/publication/1662/edition/1630/content
!!!ONB-nifc: UWAGA: części Pastorelli: 1. Symphonia (Sonata), 2. Ktoś o tej dobie płacze we żłobie
**kern	**fba	**kern	**kern	**kern	**text	**text	**text	**kern	**text	**text	**text	**kern	**text	**text	**text
*part6	*part6	*part5	*part4	*part3	*part3	*part3	*part3	*part2	*part2	*part2	*part2	*part1	*part1	*part1	*part1
*staff6	*	*staff5	*staff4	*staff3	*staff3	*staff3	*staff3	*staff2	*staff2	*staff2	*staff2	*staff1	*staff1	*staff1	*staff1
*I"Organo.	*	*I"Violino 2do	*I"Violino 1mo.	*I"Baſso.	*	*	*	*I"Canto 2do.	*	*	*	*I"Canto. 1mo.	*	*	*
*I'Org.	*	*I'Vn II	*I'Vn I	*I'B	*	*	*	*I'C. II	*	*	*	*I'C. I	*	*	*
*clefF4	*	*clefG2	*clefG2	*clefF4	*	*	*	*clefC1	*	*	*	*clefC1	*	*	*
*k[b-]	*	*k[b-]	*k[b-]	*k[b-]	*	*	*	*k[b-]	*	*	*	*k[b-]	*	*	*
*F:	*	*F:	*F:	*F:	*	*	*	*F:	*	*	*	*F:	*	*	*
*M3/4	*	*M3/4	*M3/4	*M3/4	*	*	*	*M3/4	*	*	*	*M3/4	*	*	*
=1	=1	=1	=1	=1	=1	=1	=1	=1	=1	=1	=1	=1	=1	=1	=1
!LO:TX:a:t=Solo.	!	!	!	!	!	!	!	!	!	!	!	!	!	!	!
4BB-/	.	0.r	0.r	0.r	.	.	.	4dd\	Ktoś	U-	Cud	4ff\	Ktoś	U-	Cud
4r	.	.	.	.	.	.	.	4b-\	o	-bo-	Nie-	4dd\	o	-bo-	nie-
4r	.	.	.	.	.	.	.	4cc\	tey	-gi	-sły-	4ee-X\	tey	-gi	-sły-
=2	=2	=2	=2	=2	=2	=2	=2	=2	=2	=2	=2	=2	=2	=2	=2
4BB-/	.	.	.	.	.	.	.	4dd\	do-	le-	-cha-	4ff\	do-	le-	-cha-
!	!	!	!	!	!	!	!	!LO:TX:t=P:problem:caudy półnut na środku: global	!	!	!	!LO:TX:t=P:problem:caudy półnut na środku: global	!	!	!
4r	.	.	.	.	.	.	.	2b-\	-bie	-Ży	-ny	2dd\	-bie	-Ży	-ny
4r	.	.	.	.	.	.	.	.	.	.	.	.	.	.	.
=3	=3	=3	=3	=3	=3	=3	=3	=3	=3	=3	=3	=3	=3	=3	=3
4E-X\	.	.	.	.	.	.	.	4ee-X\	pła-	wpo-	Gość	4gg\	pła-	wpo-	gość
2AA/	6	.	.	.	.	.	.	4cc\	-cZe	-dłey	Nie-	4ff\	-cze	-dłey	Nie-
.	5-	.	.	.	.	.	.	4cc\	we	o-	-wi-	4ee-X\	we	o-	-wi-
=4	=4	=4	=4	=4	=4	=4	=4	=4	=4	=4	=4	=4	=4	=4	=4
2.BB-/	.	.	.	.	.	.	.	4dd\	Żło-	-dZie-	-da-	4ff\	Żło-	-dzie-	-da-
.	.	.	.	.	.	.	.	2b-\	-bie	-Ży	-ny	2dd\	-bie	-Ży	-ny
=5	=5	=5	=5	=5	=5	=5	=5	=5	=5	=5	=5	=5	=5	=5	=5
!LO:TX:b:t=|:problem	!	!	!	!	!	!	!	!	!	!	!	!LO:TX:a:t=2	!	!	!
4BB-/	.	0.r	0.r	4BB-/	A	A	A	1.r	.	.	.	1.r	.	.	.
!LO:TX:b:t=|:problem	!	!	!	!	!	!	!	!	!	!	!	!	!	!	!
4AA/	.	.	.	(4AA/	Gdzie	kto	kto	.	.	.	.	.	.	.	.
!LO:TX:b:t=|:problem	!	!	!	!	!	!	!	!	!	!	!	!	!	!	!
4GG/	.	.	.	4GG/)	.	.	.	.	.	.	.	.	.	.	.
=6	=6	=6	=6	=6	=6	=6	=6	=6	=6	=6	=6	=6	=6	=6	=6
!LO:TX:b:t=|:problem	!	!	!	!	!	!	!	!	!	!	!	!	!	!	!
2.FF/	.	.	.	2.FF/	gdZie	kto	kto	.	.	.	.	.	.	.	.
=7	=7	=7	=7	=7	=7	=7	=7	=7	=7	=7	=7	=7	=7	=7	=7
4BB-/	.	.	.	0.r	.	.	.	4dd\	Wstay-	Pan	Bog	4ff\	wstay-	Pan	Bog
4r	.	.	.	.	.	.	.	4b-\	-ni	wsze-	U-	4dd\	-ni	wsze-	U-
4r	.	.	.	.	.	.	.	4cc\	u-	-go	-ta-	4ee-X\	u-	-go	-ta-
=8	=8	=8	=8	=8	=8	=8	=8	=8	=8	=8	=8	=8	=8	=8	=8
4BB-/	.	.	.	.	.	.	.	4dd\	-bo-	swia-	-io-	4ff\	-bo-	swia-	-io-
4r	.	.	.	.	.	.	.	2b-\	-gi	-ta	-ny	2dd\	-gi	-ta	-ny
4r	.	.	.	.	.	.	.	.	.	.	.	.	.	.	.
!LO:LB:g=original	!	!	!	!	!	!	!	!	!	!	!	!LO:LB:g=original	!	!	!
=9	=9	=9	=9	=9	=9	=9	=9	=9	=9	=9	=9	=9	=9	=9	=9
4E-X\	.	0.r	0.r	.	.	.	.	4ee-X\	lu-	kto-	dZiś	4gg\	lu-	kto-	dziś
2AA/	6	.	.	.	.	.	.	4cc\	-bo	-re-	Na-	4ff\	-bo	-re-	Na-
.	5-	.	.	.	.	.	.	4cc\	mroZ	-go	-ro-	4ee-X\	mroz	-go	-ro-
!	!	!	!	!	!	!	!	!LO:LB:g=original	!	!	!	!	!	!	!
=10	=10	=10	=10	=10	=10	=10	=10	=10	=10	=10	=10	=10	=10	=10	=10
2.BB-/	.	.	.	.	.	.	.	4dd\	ſro-	la-	-dzo-	4ff\	sro-	la-	-dzo-
.	.	.	.	.	.	.	.	2b-\	-gi	-ta	-ny	2dd\	-gi	-ta	-ny
=11	=11	=11	=11	=11	=11	=11	=11	=11	=11	=11	=11	=11	=11	=11	=11
4.BB-/	.	.	.	4.BB-/	Nie-	O-	Lu-	4.dd\	Nie-	o-	Lu-	4.ff\	Nie-	O-	lu-
8C/	.	.	.	8C/	-bie-	-gar-	-dZiom	8cc\	-bie-	-gar-	-dZiom	8ee-X\	-bie-	-gar-	-dziom
4D\	6	.	.	4D\	-skie	-nąc	sie	4b-\	-skie	-nąc	sie	4dd\	-skie	-nąc	sie
=12	=12	=12	=12	=12	=12	=12	=12	=12	=12	=12	=12	=12	=12	=12	=12
4E-X\	.	.	.	4E-X\	Pa-	Nie	po-	(8cc\L	Pa-	Nie	po-	(8ee-X\L	Pa-	nie	po-
.	.	.	.	.	.	.	.	8b-\J)	.	.	.	8dd\J)	.	.	.
4F\	4	.	.	(4F\	-cho-	mo-	-ka-	(4b-\	-cho-	mo-	-ka-	2cc\	-cho-	mo-	-ka-
4FF/	3	.	.	4FF/)	.	.	.	4a\)	.	.	.	.	.	.	.
=13	=13	=13	=13	=13	=13	=13	=13	=13	=13	=13	=13	=13	=13	=13	=13
!	!	!LO:TX:t=P:problem:mixed beam	!	!	!	!	!	!	!	!	!	!	!	!	!
[>2.BB-/	.	8d/L	8b-\L	4BB-/	-lę	-gą	-zał	4b-\	-le	-gą	-zał	4b-\	-le	-gą	-zał
.	.	8dd\	8ff\	.	.	.	.	.	.	.	.	.	.	.	.
.	.	8b-\	8dd\	4r	.	.	.	4r	.	.	.	4r	.	.	.
.	.	8cc\	8ee-X\	.	.	.	.	.	.	.	.	.	.	.	.
.	.	8dd\	8ff\	4r	.	.	.	4r	.	.	.	4r	.	.	.
.	.	8b-\J	8dd\J	.	.	.	.	.	.	.	.	.	.	.	.
!	!	!	!LO:LB:g=original	!	!	!	!	!	!	!	!	!	!	!	!
=14	=14	=14	=14	=14	=14	=14	=14	=14	=14	=14	=14	=14	=14	=14	=14
!	!	!LO:TX:t=P:problem:mixed beam	!	!	!	!	!	!	!	!	!	!	!	!	!
2.BB-/_>	.	8d/L	8b-\L	0.r	.	.	.	0.r	.	.	.	0.r	.	.	.
.	.	8dd\	8ff\	.	.	.	.	.	.	.	.	.	.	.	.
.	.	8b-\	8dd\	.	.	.	.	.	.	.	.	.	.	.	.
.	.	8cc\	8ee-X\	.	.	.	.	.	.	.	.	.	.	.	.
.	.	8dd\	8ff\	.	.	.	.	.	.	.	.	.	.	.	.
.	.	8b-\J	8dd\J	.	.	.	.	.	.	.	.	.	.	.	.
!	!	!LO:LB:g=original	!	!	!	!	!	!	!	!	!	!	!	!	!
=15	=15	=15	=15	=15	=15	=15	=15	=15	=15	=15	=15	=15	=15	=15	=15
2.BB-/_>	.	4cc\	4ee-X\	.	.	.	.	.	.	.	.	.	.	.	.
.	.	8b-\L	8dd\L	.	.	.	.	.	.	.	.	.	.	.	.
.	.	8a\	8cc\	.	.	.	.	.	.	.	.	.	.	.	.
.	.	8b-\	8dd\	.	.	.	.	.	.	.	.	.	.	.	.
.	.	8f\J	8b-\J	.	.	.	.	.	.	.	.	.	.	.	.
=16	=16	=16	=16	=16	=16	=16	=16	=16	=16	=16	=16	=16	=16	=16	=16
2.BB-/_>	.	4a/	4cc\	.	.	.	.	.	.	.	.	.	.	.	.
.	.	2f/	2f/	.	.	.	.	.	.	.	.	.	.	.	.
=17	=17	=17	=17	=17	=17	=17	=17	=17	=17	=17	=17	=17	=17	=17	=17
2.BB-/_>	.	4cc\	4ee-X\	.	.	.	.	.	.	.	.	.	.	.	.
.	.	8b-\L	8dd\L	.	.	.	.	.	.	.	.	.	.	.	.
.	.	8a\	8cc\	.	.	.	.	.	.	.	.	.	.	.	.
.	.	8b-\	8dd\	.	.	.	.	.	.	.	.	.	.	.	.
.	.	8f\J	8b-\J	.	.	.	.	.	.	.	.	.	.	.	.
!LO:LB:g=original	!	!	!	!	!	!	!	!	!	!	!	!	!	!	!
=18	=18	=18	=18	=18	=18	=18	=18	=18	=18	=18	=18	=18	=18	=18	=18
2.BB-/_>	.	4a/	4cc\	0.r	.	.	.	0.r	.	.	.	0.r	.	.	.
.	.	2f/	2f/	.	.	.	.	.	.	.	.	.	.	.	.
=19	=19	=19	=19	=19	=19	=19	=19	=19	=19	=19	=19	=19	=19	=19	=19
2.BB-/_>	.	4cc\	4ee-X\	.	.	.	.	.	.	.	.	.	.	.	.
.	.	8b-\L	8dd\L	.	.	.	.	.	.	.	.	.	.	.	.
.	.	8a\	8cc\	.	.	.	.	.	.	.	.	.	.	.	.
.	.	8b-\	8dd\	.	.	.	.	.	.	.	.	.	.	.	.
.	.	8f\J	8b-\J	.	.	.	.	.	.	.	.	.	.	.	.
=20	=20	=20	=20	=20	=20	=20	=20	=20	=20	=20	=20	=20	=20	=20	=20
2.BB-/_>	.	4cc\	4ee-X\	.	.	.	.	.	.	.	.	.	.	.	.
.	.	8b-\L	8dd\L	.	.	.	.	.	.	.	.	.	.	.	.
.	.	8a\	8cc\	.	.	.	.	.	.	.	.	.	.	.	.
.	.	8b-\	8dd\	.	.	.	.	.	.	.	.	.	.	.	.
.	.	8f\J	8b-\J	.	.	.	.	.	.	.	.	.	.	.	.
!	!	!	!LO:LB:g=original	!	!	!	!	!	!	!	!	!	!	!	!
=21	=21	=21	=21	=21	=21	=21	=21	=21	=21	=21	=21	=21	=21	=21	=21
2.BB-/_>	.	8d/L	8b-\L	.	.	.	.	.	.	.	.	.	.	.	.
.	.	8d/	8b-\	.	.	.	.	.	.	.	.	.	.	.	.
.	.	8f/	8cc\	.	.	.	.	.	.	.	.	.	.	.	.
.	.	8a/	8cc\	.	.	.	.	.	.	.	.	.	.	.	.
.	.	8b-/	8dd\	.	.	.	.	.	.	.	.	.	.	.	.
.	.	8f/J	8b-\J	.	.	.	.	.	.	.	.	.	.	.	.
!	!	!LO:LB:g=original	!	!	!	!	!	!	!	!	!	!	!	!	!
=22	=22	=22	=22	=22	=22	=22	=22	=22	=22	=22	=22	=22	=22	=22	=22
2.BB-/_>	.	8d/L	8b-\L	0.r	.	.	.	0.r	.	.	.	0.r	.	.	.
.	.	8d/	8b-\	.	.	.	.	.	.	.	.	.	.	.	.
.	.	8f/	8cc\	.	.	.	.	.	.	.	.	.	.	.	.
.	.	8a/	8cc\	.	.	.	.	.	.	.	.	.	.	.	.
.	.	8b-/	8dd\	.	.	.	.	.	.	.	.	.	.	.	.
.	.	8f/J	8b-\J	.	.	.	.	.	.	.	.	.	.	.	.
=23	=23	=23	=23	=23	=23	=23	=23	=23	=23	=23	=23	=23	=23	=23	=23
!	!	!	!LO:TX:t=P:problem:caudy półnut skierowanych w dół na środku: global	!	!	!	!	!	!	!	!	!	!	!	!
2.BB-/_>	.	2.d/	2.b-\	.	.	.	.	.	.	.	.	.	.	.	.
=24	=24	=24	=24	=24	=24	=24	=24	=24	=24	=24	=24	=24	=24	=24	=24
2.BB-/_>	.	8d/L	8b-\L	.	.	.	.	.	.	.	.	.	.	.	.
.	.	8d/	8b-\	.	.	.	.	.	.	.	.	.	.	.	.
.	.	8f/	8cc\	.	.	.	.	.	.	.	.	.	.	.	.
.	.	8a/	8cc\	.	.	.	.	.	.	.	.	.	.	.	.
.	.	8b-/	8dd\	.	.	.	.	.	.	.	.	.	.	.	.
.	.	8f/J	8b-\J	.	.	.	.	.	.	.	.	.	.	.	.
=25	=25	=25	=25	=25	=25	=25	=25	=25	=25	=25	=25	=25	=25	=25	=25
2.BB-/_>	.	8d/L	8b-\L	.	.	.	.	.	.	.	.	.	.	.	.
.	.	8d/	8b-\	.	.	.	.	.	.	.	.	.	.	.	.
.	.	8f/	8cc\	.	.	.	.	.	.	.	.	.	.	.	.
.	.	8a/	8cc\	.	.	.	.	.	.	.	.	.	.	.	.
.	.	8b-/	8dd\	.	.	.	.	.	.	.	.	.	.	.	.
.	.	8f/J	8b-\J	.	.	.	.	.	.	.	.	.	.	.	.
=26	=26	=26	=26	=26	=26	=26	=26	=26	=26	=26	=26	=26	=26	=26	=26
2.BB-/]	.	2.d/	2.b-\	2.r	.	.	.	2.r	.	.	.	2.r	.	.	.
!LO:LB;g=original	!	!	!	!LO:LB:g=original	!	!	!	!	!	!	!	!	!	!	!
=27	=27	=27	=27	=27	=27	=27	=27	=27	=27	=27	=27	=27	=27	=27	=27
!LO:TX:a:i:t=Tutti	!	!LO:TX:b:i:t=Tutti	!LO:TX:b:i:t=Tutti	!	!	!	!	!	!	!	!	!	!	!	!
4BB-/	.	4dd\	4ff\	4B-\	Wstay-	Pan	Bog	4dd\	Wstay-	Pan	Bog	4ff\	Wstay-	Pan	Bog
4r	.	4b-\	4dd\	4B-\	-ni	wsZe-	U-	4b-\	-ni	WsZe-	U-	4dd\	-ni	Wsze-	U-
4r	.	4cc\	4ee-X\	4B-\	U-	-go	-ta-	4cc\	U-	-go	-ta-	4ee-X\	U-	-go	-ta-
!	!	!	!LO:LB:g=original	!	!	!	!	!	!	!	!	!LO:LB:g=original	!	!	!
=28	=28	=28	=28	=28	=28	=28	=28	=28	=28	=28	=28	=28	=28	=28	=28
4BB-/	.	4dd\	4ff\	4B-\	-bo-	swia-	-io-	4dd\	-bo-	swia-	-io-	4ff\	-bo-	Swia-	-io-
4r	.	2b-\	2dd\	2BB-/	-gi	-ta	-ny	2b-\	-gi	-ta	-ny	2dd\	-gi	-ta	-ny
4r	.	.	.	.	.	.	.	.	.	.	.	.	.	.	.
=29	=29	=29	=29	=29	=29	=29	=29	=29	=29	=29	=29	=29	=29	=29	=29
4E-X\	.	4ee-X\	4gg\	4E-X\	lu-	kto-	dZis	4ee-X\	lu-	kto-	dZis	4gg\	lu-	kto-	dziś
2AA/	6	4cc\	4ff\	4.AA/	-bo	-re-	na-	4cc\	-bo	-re-	Na-	4ff\	-bo	-re-	Na-
!	!	!	!	!	!	!	!	!LO:LB:g=original	!	!	!	!	!	!	!
.	5-	4cc\	4ee-X\	.	.	.	.	4cc\	mroZ	-go	-ro-	4ee-X\	mroZ	-go	-ro-
.	.	.	.	8AA/	mroZ	-go	-ro-	.	.	.	.	.	.	.	.
!	!	!LO:LB:g=original	!	!	!	!	!	!	!	!	!	!	!	!	!
=30	=30	=30	=30	=30	=30	=30	=30	=30	=30	=30	=30	=30	=30	=30	=30
2.BB-/	.	4dd\	4ff\	4BB-/	sro-	la-	-dZo-	4dd\	sro-	la-	-dzo-	4ff\	sro-	la-	-dzo-
.	.	2b-\	2dd\	2BB-/	-gi	-ta	-ny	2b-\	-gi	-ta	-ny	2dd\	-gi	-ta	-ny
=31	=31	=31	=31	=31	=31	=31	=31	=31	=31	=31	=31	=31	=31	=31	=31
4.BB-/	.	4.dd\	4.ff\	4.BB-/	Nie-	O-	Lu-	4.dd\	Nie-	O-	Lu-	4.ff\	Nie-	O-	Lu-
8C/	.	8cc\	8ee-X\	8C/	-bie-	-gar-	-dZiom	8cc\	-bie-	-gar-	-dziom	8ee-X\	-bie-	-gar-	-dziom
4D\	6	4b-\	4dd\	4D\	-skie	-nąc	sie	4b-\	-skie	-nąc	sie	4dd\	-skie	-nąc	sie
=32	=32	=32	=32	=32	=32	=32	=32	=32	=32	=32	=32	=32	=32	=32	=32
4E-X\	.	8cc\L	8ee-X\L	4E-X\	Pa-	Nie	po-	(8cc\L	pa-	nie	po-	(8ee-X\L	Pa-	Nie-	po-
.	.	8b-\J	8dd\J	.	.	.	.	8b-\J)	.	.	.	8dd\J)	.	.	.
4F\	4	4b-\	2cc\	(4F\	-cho-	mo-	-ka-	(4b-\	-cho-	mo-	-ka-	2cc\	-cho-	-mo-	-ka-
!LO:N:vis=4.	!	!	!	!	!	!	!	!	!	!	!	!	!	!	!
4FF/	3	4a\	.	4FF/)	.	.	.	4a\)	.	.	.	.	.	.	.
=33	=33	=33	=33	=33	=33	=33	=33	=33	=33	=33	=33	=33	=33	=33	=33
!LO:TX:b:i:t=Symphonia ut Supra.	!	!LO:TX:b:i:t=Symphonia ut Supra.	!LO:TX:b:i:t=Symphonia Ut Supra	!LO:TX:b:i:t=Symphonia Ut Supra.	!	!	!	!LO:TX:b:i:t=Sonata ut supra.	!	!	!	!LO:TX:b:i:t=Sonata ut supra.	!	!	!
2.BB-/	.	2.b-\	2.b-\	2.BB-/	-lę	-gą	-Zał	2.b-\	-lę	-gą	-zał.	2.b-\	-le	-gą	-zał
=:|!	=:|!	=:|!	=:|!	=:|!	=:|!	=:|!	=:|!	=:|!	=:|!	=:|!	=:|!	=:|!	=:|!	=:|!	=:|!
*-	*-	*-	*-	*-	*-	*-	*-	*-	*-	*-	*-	*-	*-	*-	*-
!!!system-decoration: [(s1,s2,s3)][(s4,s5)]s6
!!!RDF**kern: > = above
!!!RDF**kern: < = below
!!!ENC: Mateusz Solarz
!!!END: 2020-12-03
!!!ENC: Leszek Kubiak
!!!END: 2021-12-29
